assets/svgs/pages/nuxt-consulting/modular.svg

<svg viewBox="0 0 67.31 92.54" xmlns="http://www.w3.org/2000/svg"><g fill="#c4c4c4"><path d="m40.45 23.83h-11.62l-1.37-4.83a.75.75 0 0 1 1.45-.4l1.09 3.73h9.34l1.06-3.76a.75.75 0 0 1 1.45.4z"/><path d="m34.4 19.52c-7.63 0-13.94-.85-18.25-2.44-5.63-2.09-6.82-5-6.82-7 0-2.36 1.78-10 24.6-10 1.23 0 2.51 0 3.82.07 11.33.42 29.37 5.15 29.37 10 0 4.41-16.57 9.05-29.42 9.42-1.13-.07-2.24-.05-3.3-.05zm-.47-18c-17 0-23.1 4.6-23.1 8.55 0 2.26 2 4.2 5.85 5.62 4.14 1.52 10.32 2.31 17.72 2.31 1.05 0 2.14 0 3.26-.05 13.87-.4 28-5.37 28-7.92 0-2.88-15.25-8-27.93-8.48-1.33-.03-2.59-.05-3.8-.05z"/><path d="m35 32.36a.76.76 0 0 1 -.75-.75v-8.53a.75.75 0 0 1 1.5 0v8.53a.76.76 0 0 1 -.75.75z"/><path d="m39.14 36.49a.77.77 0 0 1 -.53-.22l-3.61-3.6-3.6 3.6a.75.75 0 0 1 -1.06-1.06l4.66-4.66 4.66 4.66a.75.75 0 0 1 0 1.06.79.79 0 0 1 -.52.22z"/><path d="m34.58 19.52c-7.62 0-13.93-.85-18.24-2.44-5.64-2.09-6.82-5-6.82-7 0-2.36 1.77-10 24.6-10 1.22 0 2.51 0 3.81.07a75.9 75.9 0 0 1 22.75 4.58l3.18-3.18h2.91v7a2.71 2.71 0 0 1 .54 1.52 2.54 2.54 0 0 1 -.54 1.46v7.47h-2.91l-3.64-3.64a76 76 0 0 1 -22.33 4.12c-1.14.02-2.24.04-3.31.04zm-.46-18c-17 0-23.1 4.6-23.1 8.55 0 2.26 2 4.2 5.84 5.62 4.14 1.52 10.27 2.31 17.72 2.31 1.05 0 2.14 0 3.27-.05a73.93 73.93 0 0 0 22.29-4.19l.45-.18 3.89 3.89h.79v-6.47l.17-.21a1.26 1.26 0 0 0 .37-.72 1.4 1.4 0 0 0 -.38-.8l-.16-.2v-6h-.79l-3.48 3.43-.46-.19a74.9 74.9 0 0 0 -22.66-4.74c-1.29-.05-2.56-.07-3.76-.07z"/><path d="m66.37 10.8h-56.29a.75.75 0 0 1 0-1.5h56.29a.75.75 0 0 1 0 1.5z"/><path d="m16.33 92.54h-16.33v-16.33h16.33zm-14.83-1.54h13.33v-13.29h-13.33z"/><path d="m31.16 92.54h-16.33v-16.33h16.33zm-14.83-1.54h13.33v-13.29h-13.33z"/><path d="m46 92.54h-16.34v-16.33h16.34zm-14.84-1.54h13.34v-13.29h-13.34z"/><path d="m16.33 77.71h-16.33v-16.33h16.33zm-14.83-1.5h13.33v-13.33h-13.33z"/></g><path d="m57.25 51.32h-16.34v-16.32h16.34zm-14.84-1.5h13.34v-13.33h-13.34z" fill="#ff7c6c"/><path d="m27.58 51.32h-16.33v-16.32h16.33zm-14.83-1.5h13.33v-13.33h-13.33z" fill="#ff7c6c"/><path d="m42.41 51.32h-16.33v-16.32h16.33zm-14.83-1.5h13.33v-13.33h-13.33z" fill="#ff7c6c"/><path d="m42.41 66.55h-16.33v-16.33h16.33zm-14.83-1.5h13.33v-13.33h-13.33z" fill="#ff7c6c"/></svg>

<svg id="Layer_1" data-name="Layer 1" xmlns="http://www.w3.org/2000/svg" viewBox="0 0 67.31 92.54"><defs><style>.cls-1{fill:#c4c4c4;}.cls-2{fill:#ff7c6c;}</style></defs><path class="cls-1" d="M40.45,23.83H28.83L27.46,19a.75.75,0,0,1,1.45-.4L30,22.33h9.34l1.06-3.76a.75.75,0,0,1,1.45.4Z"/><path class="cls-1" d="M34.4,19.52c-7.63,0-13.94-.85-18.25-2.44-5.63-2.09-6.82-5-6.82-7,0-2.36,1.78-10,24.6-10,1.23,0,2.51,0,3.82.07,11.33.42,29.37,5.15,29.37,10,0,4.41-16.57,9.05-29.42,9.42C36.57,19.5,35.46,19.52,34.4,19.52Zm-.47-18c-17,0-23.1,4.6-23.1,8.55,0,2.26,2,4.2,5.85,5.62C20.82,17.21,27,18,34.4,18h0c1.05,0,2.14,0,3.26-.05,13.87-.4,28-5.37,28-7.92,0-2.88-15.25-8-27.93-8.48C36.4,1.52,35.14,1.5,33.93,1.5Z"/><path class="cls-1" d="M35,32.36a.76.76,0,0,1-.75-.75V23.08a.75.75,0,0,1,1.5,0v8.53A.76.76,0,0,1,35,32.36Z"/><path class="cls-1" d="M39.14,36.49a.77.77,0,0,1-.53-.22L35,32.67l-3.6,3.6a.75.75,0,0,1-1.06-1.06L35,30.55l4.66,4.66a.75.75,0,0,1,0,1.06A.79.79,0,0,1,39.14,36.49Z"/><path class="cls-1" d="M34.58,19.52c-7.62,0-13.93-.85-18.24-2.44-5.64-2.09-6.82-5-6.82-7,0-2.36,1.77-10,24.6-10,1.22,0,2.51,0,3.81.07A75.9,75.9,0,0,1,60.68,4.73l3.18-3.18h2.91v7a2.71,2.71,0,0,1,.54,1.52,2.54,2.54,0,0,1-.54,1.46V19H63.86l-3.64-3.64a76,76,0,0,1-22.33,4.12C36.75,19.5,35.65,19.52,34.58,19.52Zm-.46-18c-17,0-23.1,4.6-23.1,8.55,0,2.26,2,4.2,5.84,5.62C21,17.21,27.13,18,34.58,18c1.05,0,2.14,0,3.27-.05a73.93,73.93,0,0,0,22.29-4.19l.45-.18,3.89,3.89h.79V11l.17-.21a1.26,1.26,0,0,0,.37-.72,1.4,1.4,0,0,0-.38-.8l-.16-.2v-6h-.79L61,6.5l-.46-.19A74.9,74.9,0,0,0,37.88,1.57C36.59,1.52,35.32,1.5,34.12,1.5Z"/><path class="cls-1" d="M66.37,10.8H10.08a.75.75,0,0,1,0-1.5H66.37a.75.75,0,0,1,0,1.5Z"/><path class="cls-1" d="M16.33,92.54H0V76.21H16.33ZM1.5,91H14.83V77.71H1.5Z"/><path class="cls-1" d="M31.16,92.54H14.83V76.21H31.16ZM16.33,91H29.66V77.71H16.33Z"/><path class="cls-1" d="M46,92.54H29.66V76.21H46ZM31.16,91H44.5V77.71H31.16Z"/><path class="cls-1" d="M16.33,77.71H0V61.38H16.33ZM1.5,76.21H14.83V62.88H1.5Z"/><path class="cls-2" d="M57.25,51.32H40.91V35H57.25Zm-14.84-1.5H55.75V36.49H42.41Z"/><path class="cls-2" d="M27.58,51.32H11.25V35H27.58Zm-14.83-1.5H26.08V36.49H12.75Z"/><path class="cls-2" d="M42.41,51.32H26.08V35H42.41Zm-14.83-1.5H40.91V36.49H27.58Z"/><path class="cls-2" d="M42.41,66.55H26.08V50.22H42.41Zm-14.83-1.5H40.91V51.72H27.58Z"/></svg>
